justvector/path.svg

<?xml version="1.0" encoding="iso-8859-1"?>
<!-- Generator: Adobe Illustrator 15.0.0, SVG Export Plug-In . SVG Version: 6.00 Build 0)  -->
<!DOCTYPE svg PUBLIC "-//W3C//DTD SVG 1.1//EN" "http://www.w3.org/Graphics/SVG/1.1/DTD/svg11.dtd">
<svg version="1.1" id="Layer_1" xmlns="http://www.w3.org/2000/svg" xmlns:xlink="http://www.w3.org/1999/xlink" x="0px" y="0px"
	 width="100px" height="100px" viewBox="0 0 100 100" style="enable-background:new 0 0 100 100;" xml:space="preserve">
<path id="Path" d="M27.336,9.274c-11.577,4.585-19.443,13.42-21.64,25.322c-1.349,7.313-0.836,15.284,2.39,22.11
	c0.719,1.518,1.582,2.979,2.608,4.33c0.497,0.659,1.031,1.289,1.609,1.887c1.028-0.366,2.021-0.823,2.967-1.359
	c3.913-2.209,6.801-5.613,10.152-8.473C14.22,40.112,26.092,24.03,40.943,20.444c13.825-3.333,32.563,2.42,36.756,16.645
	c1.735,5.892,0.599,12.404-4.205,16.67c-2.513,2.232-5.701,3.709-9.073,4.31c-1.969,0.349-3.99,0.404-5.98,0.208
	c-1.109-0.111-2.212-0.299-3.297-0.554c-1.84-0.434-3.477-0.369-3.477-2.353c0-5.183,0-10.368,0-15.554c0-2.59,0-5.183,0-7.776
	c0-1.59,0.156-1.291-1.162-1.455c-1.041-0.127-2.079-0.229-3.123-0.311c-3.668-0.287-7.502-0.484-11.141,0.143
	c-1.361,0.234-1.447,0.016-1.447,1.492c0,1.195,0,2.391,0,3.583c0,2.906,0,5.813,0,8.719c0,8.687,0.654,17.476,0.295,26.147
	c-0.104,2.584-0.176,8.786-3.068,10.066c-3.352,1.482-6.315-1.652-9.408-2.306c0.424,4.354-2.299,12.979,2.776,15.176
	c4.653,2.016,10.007,2.766,14.913,1.102c10.277-3.486,13.601-14.924,12.299-24.322c15.865,4.74,32.99-3.19,39.775-17.517
	c4.831-10.201,2.791-22.873-4.482-31.547C74.271,4.759,46.616,1.642,27.336,9.274z"/>
</svg>

<?xml version="1.0" encoding="UTF-8" standalone="no"?>
<!DOCTYPE svg PUBLIC "-//W3C//DTD SVG 1.1//EN" "http://www.w3.org/Graphics/SVG/1.1/DTD/svg11.dtd">
<svg width="100%" height="100%" viewBox="0 0 100 100" version="1.1" xmlns="http://www.w3.org/2000/svg" xmlns:xlink="http://www.w3.org/1999/xlink" xml:space="preserve" xmlns:serif="http://www.serif.com/" style="fill-rule:evenodd;clip-rule:evenodd;stroke-linejoin:round;stroke-miterlimit:2;">
    <path id="Path" d="M27.336,9.274C10.941,18.393 17.111,42.642 20.462,39.782C16.921,28.495 26.092,24.03 40.943,20.444C54.768,17.111 73.506,22.864 77.699,37.089C79.434,42.981 78.298,49.493 73.494,53.759C70.981,55.991 67.793,57.468 64.421,58.069C62.452,58.418 60.431,58.473 58.441,58.277C57.332,58.166 56.229,57.978 55.144,57.723C53.304,57.289 51.667,57.354 51.667,55.37L51.667,39.816C51.667,37.226 34.794,41.305 34.794,44.211C34.794,52.898 35.448,61.687 35.089,70.358C34.985,72.942 35.396,96.06 40.302,94.396C50.579,90.91 53.903,79.472 52.601,70.074C68.466,74.814 85.591,66.884 92.376,52.557C97.207,42.356 95.167,29.684 87.894,21.01C74.271,4.759 45.457,-0.805 27.336,9.274Z" style="fill-rule:nonzero;"/>
</svg>
